build/img/icon-phone-white.svg

<svg xmlns="http://www.w3.org/2000/svg" viewBox="0 0 18 18"><path d="M14.2 11.2c-.4-.4-.8-.6-1.3-.6s-.9.2-1.3.6l-1.2 1.2c-.1-.1-.2-.1-.3-.2-.1-.1-.2-.1-.3-.2-1.1-.7-2.1-1.6-3.1-2.8-.5-.7-.9-1.2-1.1-1.7l.9-.9.3-.3c.8-.8.8-1.8 0-2.6l-1-1c-.1-.2-.3-.3-.4-.4-.2-.2-.4-.5-.7-.7-.4-.4-.8-.6-1.3-.6-.4 0-.9.2-1.3.6L.8 2.9C.4 3.4.1 4 0 4.7c-.1 1.1.2 2.1.5 2.8.6 1.7 1.5 3.2 2.9 4.8 1.7 2 3.7 3.6 6 4.7.9.4 2 .9 3.3 1h.2c.9 0 1.6-.3 2.2-.9.2-.2.4-.5.7-.7l.5-.5c.4-.4.6-.8.6-1.3s-.2-.9-.6-1.3l-2.1-2.1zm1.4 4c-.1.2-.3.3-.5.5s-.5.5-.7.8c-.4.3-.8.5-1.4.5h-.2c-1.1-.1-2.2-.5-3-.9-2.2-1-4-2.5-5.6-4.4-1.3-1.6-2.2-3-2.7-4.6-.4-.9-.5-1.6-.5-2.3 0-.4.2-.8.5-1.1l1.3-1.3c.2-.2.4-.3.6-.3.2 0 .4.1.6.3.2.2.5.4.7.6l.4.4 1 1c.4.4.4.8 0 1.2l-.3.3c-.3.3-.6.6-1 .9-.3.4-.3.7-.2.9.3.7.7 1.3 1.2 2C6.9 11 8 12 9.2 12.8c.2.2.3.2.5.3.1.1.3.1.4.2.1.1.3.1.4.1.3 0 .5-.2.6-.3l1.3-1.3c.1-.1.3-.3.6-.3.2 0 .4.1.5.3l2.1 2.1c.4.4.4.8 0 1.3zM9.7 4.3c1 .2 1.9.6 2.6 1.4.7.7 1.2 1.6 1.4 2.6 0 .3.3.4.5.4h.1c.3 0 .5-.3.4-.6-.2-1.2-.8-2.3-1.6-3.2-.9-.9-2-1.4-3.2-1.6-.3 0-.5.1-.6.4 0 .3.1.5.4.6zM18 7.9c-.3-2-1.3-3.8-2.7-5.2S12 .3 10 0c-.2 0-.5.1-.5.4-.1.3.1.6.4.6 1.8.3 3.4 1.1 4.7 2.4 1.3 1.3 2.1 2.9 2.4 4.7 0 .3.3.4.5.4h.1c.3 0 .4-.3.4-.6z" fill="#fff"/></svg>

<?xml version="1.0" encoding="utf-8"?>
<svg version="1.1" id="Слой_1" xmlns="http://www.w3.org/2000/svg" xmlns:xlink="http://www.w3.org/1999/xlink" x="0px" y="0px"
viewBox="0 0 18 18" style="enable-background:new 0 0 18 18;" xml:space="preserve">
<style type="text/css">
.st0{fill:#ffffff;}
</style>
<path class="st0" d="M14.2,11.2c-0.4-0.4-0.8-0.6-1.3-0.6c-0.5,0-0.9,0.2-1.3,0.6l-1.2,1.2c-0.1-0.1-0.2-0.1-0.3-0.2	C10,12.1,9.9,12.1,9.8,12c-1.1-0.7-2.1-1.6-3.1-2.8C6.2,8.5,5.8,8,5.6,7.5c0.3-0.3,0.6-0.6,0.9-0.9c0.1-0.1,0.2-0.2,0.3-0.3	c0.8-0.8,0.8-1.8,0-2.6l-1-1C5.7,2.5,5.5,2.4,5.4,2.3C5.2,2.1,5,1.8,4.7,1.6C4.3,1.2,3.9,1,3.4,1C3,1,2.5,1.2,2.1,1.6c0,0,0,0,0,0	L0.8,2.9C0.4,3.4,0.1,4,0,4.7c-0.1,1.1,0.2,2.1,0.5,2.8c0.6,1.7,1.5,3.2,2.9,4.8c1.7,2,3.7,3.6,6,4.7c0.9,0.4,2,0.9,3.3,1	c0.1,0,0.2,0,0.2,0c0.9,0,1.6-0.3,2.2-0.9c0,0,0,0,0,0c0.2-0.2,0.4-0.5,0.7-0.7c0.2-0.2,0.3-0.3,0.5-0.5c0.4-0.4,0.6-0.8,0.6-1.3	c0-0.5-0.2-0.9-0.6-1.3L14.2,11.2z M15.6,15.2C15.6,15.2,15.6,15.2,15.6,15.2c-0.1,0.2-0.3,0.3-0.5,0.5c-0.2,0.2-0.5,0.5-0.7,0.8	C14,16.8,13.6,17,13,17c-0.1,0-0.1,0-0.2,0c-1.1-0.1-2.2-0.5-3-0.9c-2.2-1-4-2.5-5.6-4.4c-1.3-1.6-2.2-3-2.7-4.6	C1.1,6.2,1,5.5,1,4.8c0-0.4,0.2-0.8,0.5-1.1l1.3-1.3c0.2-0.2,0.4-0.3,0.6-0.3c0.2,0,0.4,0.1,0.6,0.3c0,0,0,0,0,0	C4.2,2.6,4.5,2.8,4.7,3c0.1,0.1,0.2,0.2,0.4,0.4l1,1c0.4,0.4,0.4,0.8,0,1.2C6,5.7,5.9,5.8,5.8,5.9c-0.3,0.3-0.6,0.6-1,0.9	c0,0,0,0,0,0C4.5,7.2,4.5,7.5,4.6,7.7c0,0,0,0,0,0c0.3,0.7,0.7,1.3,1.2,2l0,0c1.1,1.3,2.2,2.3,3.4,3.1C9.4,13,9.5,13,9.7,13.1	c0.1,0.1,0.3,0.1,0.4,0.2c0,0,0,0,0,0c0.1,0.1,0.3,0.1,0.4,0.1c0.3,0,0.5-0.2,0.6-0.3l1.3-1.3c0.1-0.1,0.3-0.3,0.6-0.3	c0.2,0,0.4,0.1,0.5,0.3c0,0,0,0,0,0l2.1,2.1C16,14.3,16,14.7,15.6,15.2z"/><path class="st0" d="M9.7,4.3c1,0.2,1.9,0.6,2.6,1.4c0.7,0.7,1.2,1.6,1.4,2.6c0,0.3,0.3,0.4,0.5,0.4c0,0,0.1,0,0.1,0	c0.3,0,0.5-0.3,0.4-0.6c-0.2-1.2-0.8-2.3-1.6-3.2c-0.9-0.9-2-1.4-3.2-1.6c-0.3,0-0.5,0.1-0.6,0.4C9.3,4,9.4,4.2,9.7,4.3z"/><path class="st0" d="M18,7.9c-0.3-2-1.3-3.8-2.7-5.2S12,0.3,10,0C9.8,0,9.5,0.1,9.5,0.4C9.4,0.7,9.6,1,9.9,1	c1.8,0.3,3.4,1.1,4.7,2.4c1.3,1.3,2.1,2.9,2.4,4.7c0,0.3,0.3,0.4,0.5,0.4c0,0,0.1,0,0.1,0C17.9,8.5,18,8.2,18,7.9z"/></svg>
